X: 5
T: The Monaghan Twig
R: reel
M: 4/4
L: 1/8
K: Amix
ed|cAAB cded|cAAG E3d|cAAB cded|BAGB d2ed|
cAAB cded|cAAG E3d|cAAB cded|BAGB d2ed||
(3Bcd ef gfed|(3Bcd ef e3d|(3Bcd ef gfge|dBGB d2ed|
(3Bcd ed (3Bcd ed|cAAB cdef|g3e dfed|BAGB d2||

